svgs/sharp-light/square-b.svg

<svg xmlns="http://www.w3.org/2000/svg" viewBox="0 0 448 512"><!--! Font Awesome Pro 6.6.0 by @fontawesome - https://fontawesome.com License - https://fontawesome.com/license (Commercial License) Copyright 2024 Fonticons, Inc. --><path d="M32 64l0 384 384 0 0-384L32 64zM0 32l32 0 384 0 32 0 0 32 0 384 0 32-32 0L32 480 0 480l0-32L0 64 0 32zm128 96l16 0 104 0c39.8 0 72 32.2 72 72c0 19.3-7.6 36.8-19.9 49.7C321.6 262.2 336 285.4 336 312c0 39.8-32.2 72-72 72l-120 0-16 0 0-16 0-112 0-112 0-16zm160 72c0-22.1-17.9-40-40-40l-88 0 0 80 88 0c22.1 0 40-17.9 40-40zM160 352l104 0c22.1 0 40-17.9 40-40s-17.9-40-40-40l-16 0-88 0 0 80z"/></svg>

<svg xmlns="http://www.w3.org/2000/svg" viewBox="0 0 448 512"><!--! Font Awesome Pro 6.5.2 by @fontawesome - https://fontawesome.com License - https://fontawesome.com/license (Commercial License) Copyright 2024 Fonticons, Inc. --><path d="M32 64V448H416V64H32zM0 32H32 416h32V64 448v32H416 32 0V448 64 32zm128 96h16H248c39.8 0 72 32.2 72 72c0 19.3-7.6 36.8-19.9 49.7C321.6 262.2 336 285.4 336 312c0 39.8-32.2 72-72 72H144 128V368 256 144 128zm160 72c0-22.1-17.9-40-40-40H160v80h88c22.1 0 40-17.9 40-40zM160 352H264c22.1 0 40-17.9 40-40s-17.9-40-40-40H248 160v80z"/></svg>
